X:326
M:C
L:1/8
K:G Minor
c>AF>A BGG:|
d|g>fd>g f<d g2|f>dc>f A<Fc<A|g>fd>g f<d g2|f>df>A B<G G2|
g>fd>g f<d g2|f>dc>f A<Fc<A|G<BA<c B<dc<g|f<df<A G2G||

